X: 1
T: The Ring Finger
R: reel
M: 4/4
L: 1/8
K: Dmaj
|:fd~d2 BdAB|dcde faag|fd~d2 B2dB|~A3B Adde|
f2dA ~B3d|Adfa gdfg|afga fded|cAAB ceag:|
|:fd~d2 fdad|fd~d2 eAce|d2fd afdA|B2ge fage|
fd~d2 Bd~d2|Adfa gdfg|afga fded|cAAB cege:|

